dist/assets/img/solution-5.svg

<svg width="167" height="176" viewBox="0 0 167 176" fill="none" xmlns="http://www.w3.org/2000/svg">
<path d="M80.1858 167.117C80.1302 167.117 80.0745 167.117 80.0373 167.097L45.1529 160.135C45.0416 160.116 44.9303 160.077 44.8561 159.998L16.5959 140.443C16.5031 140.384 16.4289 140.286 16.3547 140.189L6.11208 124.329C5.96364 124.094 5.92653 123.821 6.00075 123.547L16.0207 91.3976L18.7298 65.5452L3.8111 36.4465C3.69977 36.2314 3.68127 35.9576 3.75549 35.7229C3.82971 35.4883 4.01529 35.2927 4.23795 35.1949L28.991 24.5176L52.0927 7.9736C52.3154 7.81715 52.6123 7.77804 52.8535 7.87582L75.7882 16.754C75.9181 16.8127 76.048 16.8909 76.1407 17.0083L83.9897 26.9034L133.069 24.8891C133.18 24.8891 133.31 24.9087 133.403 24.9478L163.908 37.5416C164.131 37.6394 164.298 37.8154 164.391 38.05C164.484 38.2847 164.465 38.5389 164.354 38.7736L149.213 70.5905L134.461 99.1025L133.403 128.123C133.403 128.279 133.347 128.436 133.255 128.573L123.977 143.298C123.921 143.396 123.847 143.474 123.754 143.533L103.807 158.375C103.733 158.414 103.677 158.454 103.603 158.493L80.4642 167.038C80.39 167.097 80.2786 167.117 80.1858 167.117ZM45.6354 158.414L80.1301 165.318L102.954 156.889L122.678 142.222L131.733 127.849L132.791 98.8678C132.791 98.7309 132.828 98.594 132.902 98.4767L147.728 69.8083L162.443 38.8909L132.958 26.7274L83.6371 28.7416C83.3959 28.7611 83.1176 28.6438 82.9506 28.4287L74.9903 18.3771L52.6679 9.73359L29.7704 26.1212L5.74095 36.5051L20.3442 64.978C20.4184 65.1345 20.4555 65.3105 20.4369 65.506L17.6536 91.8083L7.72641 123.723L17.635 139.074L45.6354 158.414Z" fill="white"/>
<path d="M80.1858 167.117C79.7405 167.117 79.3693 166.745 79.3508 166.276L78.2003 144.276C78.2003 144.198 78.2003 144.139 78.2189 144.061L85.3999 103.307L80.9281 62.8073C80.8909 62.4358 81.0765 62.0643 81.3919 61.9078L106.442 49.0989L137.077 37.2678C137.17 37.2287 137.281 37.2287 137.374 37.2091L163.612 37.5416C164.075 37.5416 164.447 37.9523 164.447 38.4411C164.447 38.93 164.057 39.3211 163.593 39.3211C163.593 39.3211 163.593 39.3211 163.574 39.3211L137.485 38.9887L107.073 50.7416L82.6537 63.2376L87.0699 103.248C87.0699 103.326 87.0699 103.424 87.0699 103.522L79.8888 144.315L81.0394 166.217C81.0579 166.706 80.7053 167.136 80.2414 167.156C80.2228 167.117 80.2044 167.117 80.1858 167.117Z" fill="white"/>
<path d="M81.7629 63.57C81.7444 63.57 81.7259 63.57 81.7073 63.57L52.4266 61.458C52.2781 61.4384 52.1112 61.3798 51.9999 61.3016L30.1971 44.8554L4.33063 36.8962C3.88529 36.7593 3.62552 36.2705 3.75541 35.8011C3.8853 35.3318 4.34918 35.058 4.79452 35.1949L30.7909 43.2127C30.8836 43.2322 30.9764 43.2909 31.0507 43.3496L52.7792 59.7371L81.8186 61.8296C82.2825 61.8687 82.6351 62.2794 82.5979 62.7878C82.5794 63.218 82.2083 63.57 81.7629 63.57Z" fill="white"/>
<path d="M123.29 143.728C122.882 143.728 122.53 143.415 122.455 142.985L116.536 105.751C116.518 105.634 116.518 105.497 116.555 105.38L125.999 68.5371L136.242 38.754L106.331 32.6331L70.0174 29.4456C69.8133 29.426 69.6091 29.3282 69.4792 29.1718L51.9628 9.36201C51.6473 9.01001 51.6659 8.4429 51.9999 8.11046C52.3339 7.77801 52.8721 7.79758 53.1875 8.14958L70.4813 27.7051L106.553 30.8731L137.523 37.2091C137.764 37.2678 137.968 37.4242 138.098 37.6394C138.228 37.874 138.246 38.1283 138.153 38.3825L127.595 69.0651L118.225 105.654L124.107 142.711C124.181 143.2 123.866 143.65 123.42 143.728C123.383 143.728 123.327 143.728 123.29 143.728Z" fill="white"/>
<path d="M103.343 158.571C103.325 158.571 103.325 158.571 103.306 158.571C102.842 158.551 102.471 158.141 102.508 157.632L103.807 126.461L105.013 87.9362L105.941 50.7807L79.5735 52.0909C79.425 52.0909 79.2766 52.0714 79.1467 51.9931L53.5771 38.2847L28.954 26.1603C28.5272 25.9452 28.3416 25.4171 28.5457 24.9869C28.7498 24.5371 29.2509 24.3416 29.6591 24.5567L54.3008 36.7007L79.7034 50.3309L106.757 48.9816C106.999 49.0011 107.221 49.0598 107.388 49.2358C107.555 49.4118 107.648 49.6465 107.648 49.9007L106.683 88.0145L105.477 126.558L104.178 157.73C104.16 158.199 103.788 158.571 103.343 158.571Z" fill="white"/>
<path d="M45.3199 160.135C44.856 160.135 44.4849 159.744 44.4663 159.275L43.9653 139.015C43.9653 138.898 43.9839 138.781 44.021 138.683L57.6222 101.39L51.6473 60.7149C51.5917 60.2847 51.8329 59.874 52.2225 59.7372L79.1467 50.4287L106.015 31.0296C106.108 30.9709 106.201 30.9123 106.312 30.8927L132.921 24.9674C133.385 24.85 133.83 25.1825 133.923 25.6518C134.015 26.1407 133.719 26.61 133.273 26.7078L106.832 32.594L80.0003 51.9736C79.926 52.0127 79.8703 52.0518 79.7775 52.0909L53.4101 61.2038L59.2922 101.351C59.3108 101.508 59.2923 101.664 59.2366 101.801L45.6168 139.152L46.1178 159.236C46.1364 159.725 45.7653 160.135 45.3014 160.155C45.3199 160.135 45.3199 160.135 45.3199 160.135Z" fill="white"/>
<path d="M17.0412 140.58C16.9113 140.58 16.7815 140.541 16.6516 140.482C16.2434 140.247 16.0764 139.719 16.299 139.289L29.2508 113.124L42.852 84.8074L29.7704 44.3274C29.6961 44.0927 29.7146 43.8385 29.826 43.6038C29.9373 43.3887 30.1415 43.2323 30.3642 43.1736L54.6719 37.2287L69.6462 27.7638C70.0359 27.5096 70.574 27.6465 70.8152 28.0767C71.0565 28.5069 70.9265 29.0545 70.5183 29.3087L55.4326 38.8323C55.3584 38.8714 55.2842 38.9105 55.1914 38.93L31.663 44.6989L44.5591 84.5727C44.6333 84.8074 44.6147 85.042 44.5219 85.2571L30.7538 113.926L17.7834 140.11C17.635 140.404 17.3381 140.58 17.0412 140.58Z" fill="white"/>
<path d="M79.0539 145.097C79.0168 145.097 78.9796 145.097 78.924 145.097L44.689 139.876C44.4477 139.837 44.2251 139.68 44.0952 139.465L29.2879 114.004L16.1134 92.1798C15.8721 91.7691 15.9835 91.2216 16.3732 90.9478C16.7628 90.674 17.2824 90.8109 17.5422 91.2216L30.7166 113.065L45.3199 138.194L78.8497 143.318L104.03 125.894L116.647 105.145C116.74 104.989 116.889 104.871 117.056 104.793L133.329 98.0856C133.756 97.9096 134.257 98.1247 134.424 98.594C134.591 99.0438 134.386 99.5718 133.941 99.7478L117.928 106.358L105.347 127.028C105.291 127.126 105.199 127.223 105.106 127.282L79.4992 144.98C79.3693 145.058 79.2023 145.097 79.0539 145.097Z" fill="white"/>
<path d="M86.2535 104.206C86.2349 104.206 86.2163 104.206 86.1977 104.206L58.4386 102.349C58.2159 102.329 58.0118 102.231 57.8634 102.055L42.9447 84.8269L19.1009 66.0731C18.7298 65.7798 18.6555 65.2127 18.9338 64.8216C19.2122 64.4304 19.7318 64.3522 20.1214 64.6456L44.0766 83.4971L58.884 100.569L85.9937 102.388L105.347 87.2322L126.259 68.0482C126.426 67.8918 126.649 67.8136 126.871 67.8331L148.526 69.2998C148.99 69.3389 149.342 69.7496 149.305 70.2385C149.268 70.7273 148.86 71.0989 148.415 71.0598L127.113 69.6127L106.405 88.6011L86.7544 103.991C86.6059 104.148 86.4205 104.206 86.2535 104.206Z" fill="white"/>
<path d="M62.0569 163.03C61.927 163.03 61.7972 162.971 61.7229 162.854L46.6373 142.183L54.4863 160.8C54.5791 161.035 54.4862 161.289 54.2636 161.387C54.0595 161.485 53.7997 161.387 53.7069 161.152L44.4291 139.133C44.3364 138.918 44.4106 138.683 44.5962 138.566C44.7818 138.448 45.023 138.507 45.1528 138.683L62.3909 162.286C62.5394 162.482 62.5023 162.756 62.3167 162.912C62.2239 163.01 62.1497 163.03 62.0569 163.03Z" fill="white"/>
<path d="M76.2149 165.865C76.1221 165.865 76.0293 165.826 75.955 165.767L50.6268 144.432L68.8854 163.577C69.0524 163.753 69.0524 164.027 68.8854 164.203C68.7184 164.379 68.4586 164.379 68.2916 164.203L44.5219 139.289C44.3549 139.133 44.355 138.859 44.5035 138.683C44.6519 138.507 44.9117 138.487 45.0787 138.624L76.4747 165.063C76.6602 165.22 76.6787 165.494 76.5488 165.689C76.4561 165.806 76.3262 165.865 76.2149 165.865Z" fill="white"/>
<path d="M80.0187 163.303C79.9445 163.303 79.8518 163.284 79.7961 163.225L44.5777 139.348C44.3921 139.211 44.3364 138.957 44.4292 138.761C44.5405 138.546 44.7817 138.468 44.9858 138.585L79.8704 156.126C80.0745 156.224 80.1672 156.498 80.0745 156.713C79.9817 156.928 79.7219 157.026 79.5178 156.928L50.6454 142.418L80.26 162.482C80.4641 162.619 80.5198 162.893 80.3899 163.088C80.2971 163.225 80.1486 163.303 80.0187 163.303Z" fill="white"/>
<path d="M79.3508 150.475C79.3137 150.475 79.2765 150.475 79.2209 150.455L44.6704 139.406C44.4478 139.328 44.318 139.094 44.3922 138.859C44.4664 138.624 44.689 138.487 44.9117 138.566L79.4621 149.614C79.6848 149.693 79.8147 149.927 79.7405 150.162C79.7034 150.338 79.5363 150.475 79.3508 150.475Z" fill="white"/>
<path d="M72.5224 143.67C72.4667 143.67 72.4296 143.67 72.3739 143.65C72.1512 143.572 72.04 143.318 72.1142 143.083L83.6186 109.643L67.4382 142.614C67.3268 142.829 67.0671 142.926 66.863 142.809C66.6588 142.692 66.566 142.418 66.6773 142.203L85.8453 103.131C85.938 102.916 86.1792 102.838 86.3833 102.935C86.5874 103.033 86.6803 103.268 86.6061 103.502L72.8749 143.396C72.8564 143.552 72.6894 143.67 72.5224 143.67Z" fill="white"/>
<path d="M61.5189 141.988C61.4446 141.988 61.3518 141.968 61.2776 141.91C61.0921 141.773 61.0364 141.499 61.1663 141.284L81.9485 109.154L55.5996 140.873C55.4512 141.069 55.1728 141.088 55.0058 140.912C54.8388 140.756 54.8202 140.462 54.9687 140.286L85.9193 103.014C86.0678 102.838 86.3091 102.818 86.4947 102.955C86.6617 103.092 86.7173 103.366 86.5874 103.561L61.8528 141.773C61.7786 141.91 61.6487 141.988 61.5189 141.988Z" fill="white"/>
<path d="M49.0495 140.071C48.9381 140.071 48.8268 140.032 48.7341 139.934C48.5856 139.758 48.5856 139.465 48.7526 139.309L80.3157 108.509L46.7486 134.713C46.5631 134.85 46.2847 134.811 46.1548 134.615C46.0064 134.42 46.0621 134.146 46.2477 133.99L85.9937 102.974C86.1792 102.838 86.4204 102.877 86.5689 103.053C86.7173 103.229 86.6987 103.502 86.5317 103.659L49.3279 139.974C49.2536 140.032 49.1423 140.071 49.0495 140.071Z" fill="white"/>
<path d="M49.3464 126.95C49.198 126.95 49.0681 126.871 48.9753 126.734C48.864 126.519 48.9197 126.246 49.1238 126.128L81.1321 106.006L52.6308 118.345C52.4081 118.423 52.1668 118.326 52.074 118.11C51.9813 117.876 52.0926 117.622 52.2967 117.524L86.0678 102.896C86.2719 102.818 86.5132 102.896 86.606 103.111C86.6988 103.326 86.6431 103.581 86.439 103.698L49.5505 126.891C49.4948 126.93 49.4206 126.95 49.3464 126.95Z" fill="white"/>
<path d="M54.7091 112.244C54.5235 112.244 54.3565 112.107 54.3008 111.911C54.2452 111.677 54.3751 111.422 54.5978 111.364L80.8538 104.304L56.7502 106.729C56.5275 106.788 56.3048 106.573 56.2863 106.318C56.2677 106.064 56.4347 105.849 56.6574 105.83L86.1792 102.857C86.4019 102.838 86.606 102.994 86.6431 103.229C86.6802 103.463 86.5504 103.678 86.3277 103.737L54.8019 112.224C54.7833 112.244 54.7462 112.244 54.7091 112.244Z" fill="white"/>
<path d="M117.371 106.045C117.241 106.045 117.111 105.986 117.037 105.869C116.907 105.693 116.926 105.419 117.093 105.262L141.512 82.7931C141.679 82.6367 141.957 82.6562 142.106 82.8322C142.254 83.0082 142.236 83.3016 142.069 83.458L122.53 101.449L137.226 91.1434C137.411 91.0065 137.689 91.0651 137.819 91.2607C137.949 91.4562 137.894 91.7496 137.708 91.8865L117.631 105.966C117.538 106.006 117.445 106.045 117.371 106.045Z" fill="white"/>
<path d="M117.371 106.045C117.278 106.045 117.186 106.006 117.111 105.947C116.944 105.79 116.907 105.536 117.037 105.341L140.992 69.4758C141.122 69.2607 141.382 69.2216 141.586 69.3585C141.772 69.4954 141.827 69.7691 141.698 69.9842L121.379 100.413L148.192 69.906C148.359 69.73 148.619 69.7105 148.786 69.8865C148.953 70.0429 148.971 70.3362 148.804 70.5122L117.705 105.888C117.594 105.986 117.482 106.045 117.371 106.045Z" fill="white"/>
<path d="M117.371 106.045C117.315 106.045 117.241 106.025 117.186 106.006C116.981 105.908 116.889 105.634 116.982 105.419L133.255 69.026C133.347 68.8109 133.607 68.7131 133.811 68.8109C134.016 68.9087 134.108 69.1825 134.016 69.3976L117.742 105.79C117.687 105.947 117.52 106.045 117.371 106.045Z" fill="white"/>
</svg>

<svg width="167" height="176" fill="none" xmlns="http://www.w3.org/2000/svg"><path d="M80.186 167.117c-.056 0-.112 0-.149-.02l-34.884-6.962a.522.522 0 01-.297-.137l-28.26-19.555c-.093-.059-.167-.157-.241-.254l-10.243-15.86a.963.963 0 01-.111-.782l10.02-32.15 2.709-25.852L3.81 36.446a.976.976 0 01-.056-.723.883.883 0 01.483-.528L28.99 24.518 52.093 7.974a.818.818 0 01.76-.098l22.935 8.878a.92.92 0 01.353.254l7.849 9.895 49.079-2.014a.93.93 0 01.334.059l30.505 12.594a.905.905 0 01.446 1.232L149.213 70.59l-14.752 28.512-1.058 29.02a.819.819 0 01-.148.45l-9.278 14.725a.662.662 0 01-.223.235l-19.947 14.842c-.074.039-.13.079-.204.118l-23.139 8.545a.463.463 0 01-.278.079zm-34.55-8.703l34.494 6.904 22.824-8.429 19.724-14.667 9.055-14.373 1.058-28.981c0-.137.037-.274.111-.391l14.826-28.669 14.715-30.917-29.485-12.164-49.32 2.015a.822.822 0 01-.687-.313l-7.96-10.052-22.323-8.643L29.77 26.12 5.741 36.505l14.603 28.473a.994.994 0 01.093.528l-2.783 26.302-9.928 31.915 9.909 15.351 28 19.34z" fill="#fff"/><path d="M80.186 167.117c-.446 0-.817-.372-.835-.841l-1.15-22c0-.078 0-.137.018-.215l7.18-40.754-4.47-40.5c-.038-.371.147-.743.463-.9l25.05-12.808 30.635-11.831c.093-.04.204-.04.297-.059l26.238.333c.463 0 .835.41.835.9a.87.87 0 01-.854.88h-.019l-26.089-.333-30.412 11.753-24.42 12.496 4.417 40.01v.274l-7.181 40.793 1.15 21.902c.019.489-.334.919-.798.939-.018-.039-.037-.039-.055-.039z" fill="#fff"/><path d="M81.763 63.57h-.056l-29.28-2.112a1.027 1.027 0 01-.427-.156L30.197 44.855 4.331 36.896c-.446-.137-.705-.626-.576-1.095.13-.47.594-.743 1.04-.606l25.996 8.018a.68.68 0 01.26.137l21.728 16.387 29.04 2.093c.463.039.816.45.779.958a.834.834 0 01-.835.782z" fill="#fff"/><path d="M123.29 143.728c-.408 0-.76-.313-.835-.743l-5.919-37.234a.848.848 0 01.019-.371l9.444-36.843 10.243-29.783-29.911-6.12-36.314-3.188a.81.81 0 01-.538-.274L51.963 9.362A.926.926 0 0152 8.11a.816.816 0 011.188.04L70.48 27.705l36.072 3.168 30.97 6.336a.932.932 0 01.575.43c.13.235.148.49.055.743l-10.558 30.683-9.37 36.589 5.882 37.057c.074.489-.241.939-.687 1.017h-.13z" fill="#fff"/><path d="M103.343 158.571h-.037c-.464-.02-.835-.43-.798-.939l1.299-31.171 1.206-38.525.928-37.155-26.368 1.31a.81.81 0 01-.426-.098l-25.57-13.708L28.954 26.16a.897.897 0 01-.408-1.173c.204-.45.705-.645 1.113-.43L54.301 36.7l25.402 13.63 27.054-1.35c.242.02.464.079.631.255.167.176.26.41.26.665l-.965 38.113-1.206 38.544-1.299 31.172c-.018.469-.39.841-.835.841z" fill="#fff"/><path d="M45.32 160.135c-.464 0-.835-.391-.854-.86l-.5-20.26a.96.96 0 01.055-.332l13.601-37.293-5.975-40.675c-.055-.43.186-.841.575-.978l26.925-9.308 26.868-19.4a.836.836 0 01.297-.136l26.609-5.926c.464-.117.909.216 1.002.685.092.489-.204.958-.65 1.056l-26.441 5.886L80 51.974c-.074.039-.13.078-.222.117L53.41 61.204l5.882 40.147a.913.913 0 01-.055.45l-13.62 37.351.5 20.084c.02.489-.352.899-.816.919l.019-.02z" fill="#fff"/><path d="M17.041 140.58a.95.95 0 01-.39-.098.905.905 0 01-.352-1.193l12.952-26.165 13.601-28.317-13.082-40.48a.983.983 0 01.056-.723.861.861 0 01.538-.43l24.308-5.945 14.974-9.465c.39-.254.928-.117 1.17.313.24.43.11.977-.298 1.232l-15.085 9.523a.902.902 0 01-.242.098l-23.528 5.769 12.896 39.874a.964.964 0 01-.037.684l-13.768 28.669-12.97 26.184a.846.846 0 01-.743.47z" fill="#fff"/><path d="M79.054 145.097h-.13l-34.235-5.221a.874.874 0 01-.594-.411l-14.807-25.461L16.113 92.18a.94.94 0 01.26-1.232c.39-.274.91-.137 1.17.274l13.174 21.843 14.603 25.129 33.53 5.124 25.18-17.424 12.617-20.749a.924.924 0 01.409-.352l16.273-6.707a.83.83 0 011.095.508c.167.45-.038.978-.483 1.154l-16.013 6.61-12.581 20.67a.771.771 0 01-.241.254L79.499 144.98a.897.897 0 01-.445.117z" fill="#fff"/><path d="M86.254 104.206h-.056l-27.76-1.857a.838.838 0 01-.575-.294L42.945 84.827 19.1 66.073c-.371-.293-.445-.86-.167-1.251a.823.823 0 011.187-.176l23.956 18.851 14.807 17.072 27.11 1.819 19.353-15.156 20.912-19.184a.796.796 0 01.612-.215l21.655 1.467c.464.039.816.45.779.939-.037.488-.445.86-.89.82l-21.302-1.446L106.405 88.6l-19.65 15.39a.68.68 0 01-.501.215zM62.057 163.03a.391.391 0 01-.334-.176l-15.086-20.671 7.85 18.617c.092.235 0 .489-.223.587a.413.413 0 01-.557-.235l-9.278-22.019a.45.45 0 01.167-.567.416.416 0 01.557.117l17.238 23.603a.457.457 0 01-.074.626c-.093.098-.167.118-.26.118z" fill="#fff"/><path d="M76.215 165.865a.428.428 0 01-.26-.098l-25.328-21.335 18.258 19.145a.454.454 0 010 .626.4.4 0 01-.593 0l-23.77-24.914c-.167-.156-.167-.43-.018-.606a.414.414 0 01.575-.059l31.396 26.439a.477.477 0 01.074.626.442.442 0 01-.334.176z" fill="#fff"/><path d="M80.019 163.303c-.075 0-.167-.019-.223-.078l-35.218-23.877a.483.483 0 01-.149-.587c.111-.215.353-.293.557-.176l34.884 17.541c.204.098.297.372.204.587a.419.419 0 01-.556.215l-28.873-14.51 29.615 20.064c.204.137.26.411.13.606a.471.471 0 01-.371.215z" fill="#fff"/><path d="M79.35 150.475c-.036 0-.073 0-.13-.02l-34.55-11.049a.437.437 0 01-.278-.547c.074-.235.297-.372.52-.293l34.55 11.048a.438.438 0 01.278.548.405.405 0 01-.39.313zm-6.828-6.805c-.055 0-.092 0-.148-.02-.223-.078-.334-.332-.26-.567l11.505-33.44-16.18 32.971c-.112.215-.372.312-.576.195a.467.467 0 01-.186-.606l19.168-39.072a.392.392 0 01.538-.196c.204.098.297.333.223.567l-13.731 39.894c-.019.156-.186.274-.353.274z" fill="#fff"/><path d="M61.519 141.988a.398.398 0 01-.241-.078.476.476 0 01-.112-.626l20.782-32.13L55.6 140.873a.387.387 0 01-.594.039.474.474 0 01-.037-.626l30.95-37.272a.413.413 0 01.576-.059.471.471 0 01.092.606l-24.734 38.212a.388.388 0 01-.334.215z" fill="#fff"/><path d="M49.05 140.071a.422.422 0 01-.316-.137c-.148-.176-.148-.469.019-.625l31.563-30.8-33.567 26.204a.42.42 0 01-.594-.098c-.149-.195-.093-.469.093-.625l39.746-31.016a.417.417 0 01.575.079.448.448 0 01-.037.606l-37.204 36.315a.487.487 0 01-.279.097z" fill="#fff"/><path d="M49.346 126.95a.447.447 0 01-.37-.216c-.112-.215-.056-.488.148-.606l32.008-20.122-28.501 12.339a.44.44 0 01-.557-.235.463.463 0 01.223-.586l33.77-14.628a.416.416 0 01.539.215c.093.215.037.47-.167.587l-36.888 23.193a.36.36 0 01-.205.059z" fill="#fff"/><path d="M54.71 112.244a.44.44 0 01-.41-.333c-.055-.234.075-.489.298-.547l26.256-7.06-24.104 2.425c-.222.059-.445-.156-.464-.411-.018-.254.149-.469.371-.488l29.522-2.973a.434.434 0 01.464.372.44.44 0 01-.315.508l-31.526 8.487c-.019.02-.056.02-.093.02zm62.661-6.199a.39.39 0 01-.334-.176.472.472 0 01.056-.607l24.419-22.469a.417.417 0 01.594.04.473.473 0 01-.037.625l-19.539 17.991 14.696-10.306c.185-.136.463-.078.593.118a.48.48 0 01-.111.626l-20.077 14.079a.753.753 0 01-.26.079z" fill="#fff"/><path d="M117.371 106.045a.43.43 0 01-.26-.098.471.471 0 01-.074-.606l23.955-35.865c.13-.215.39-.254.594-.117.186.136.241.41.112.625l-20.319 30.429 26.813-30.507c.167-.176.427-.196.594-.02.167.157.185.45.018.626l-31.099 35.376c-.111.098-.223.157-.334.157z" fill="#fff"/><path d="M117.371 106.045a.637.637 0 01-.185-.039c-.205-.098-.297-.372-.204-.587l16.273-36.393a.419.419 0 01.556-.215c.205.098.297.371.205.587l-16.274 36.392a.404.404 0 01-.371.255z" fill="#fff"/></svg>
